16x16/actions/distribute-horizontal-right.svg

<svg xmlns="http://www.w3.org/2000/svg" viewBox="0 0 16 16"><path style="fill:currentColor;fill-opacity:1;stroke:none;color:#5d656b" d="M9 2 6 4l3 2V2zm1 0v4l3-2-3-2zM5 5v2H1v6h4v1h1V5H5zm8 0v2H9v6h4v1h1V5h-1zM2 8h3v4H2V8zm8 0h3v4h-3V8z"/></svg>

<svg xmlns="http://www.w3.org/2000/svg" viewBox="0 0 16 16">
  <defs id="defs3051">
    <style type="text/css" id="current-color-scheme">
      .ColorScheme-Text {
        color:#5d656b;
      }
      </style>
  </defs>
 <path style="fill:currentColor;fill-opacity:1;stroke:none" 
     d="M 9 2 L 6 4 L 9 6 L 9 2 z M 10 2 L 10 6 L 13 4 L 10 2 z M 5 5 L 5 6 L 5 7 L 4 7 L 3 7 L 1 7 L 1 13 L 3 13 L 4 13 L 5 13 L 5 14 L 6 14 L 6 13 L 6 7 L 6 6 L 6 5 L 5 5 z M 13 5 L 13 7 L 9 7 L 9 12 L 9 13 L 13 13 L 13 14 L 14 14 L 14 5 L 13 5 z M 2 8 L 5 8 L 5 12 L 2 12 L 2 8 z M 10 8 L 13 8 L 13 12 L 10 12 L 10 8 z "
     class="ColorScheme-Text"
     />
</svg>
